X: 46
T:the Countess of Seafield
B:William Marshall Volume 2nd Of A Collection Of Scottish Melodies (1845)
C:William Marshall
L:1/8
M:9/8
O:Scotland
R:Slip Jig
Z:Clark Bernst + Richard Robinson
%%Page:20 - 2
F:http://richardrobinson.tunebook.org.uk/tune/3889
%%TBL:{"version":1,"type":"tune","id":"3889"}
K:Bb
%%staves {1 2}
V:1
B3 B2 d fdB | C2 c c2 d efg | B,2 B B2 d fdB | GAB cdB AGF |
[B,fB]3 B2 d fdB | C2 c c2 d efg | fga bag fed | edc FdA B3 |]
!trill!f3 d2 b fed | e3 c2 d efg | f2~b d2 B f2 d | GAB cdB AGF |
f3 ~d2 b fed | !trill!e3 c2 d efg | fga bag fed | {f}edc FdA [FB]3 |]
V:2 middle=d clef=bass
Bfb Bfb Bfb | egc' egc' cgc' | dfb dfb dfb | e2d c2=e f3 | \
Bfb Bfb Bfb | egc' egc' cgc' | dfb dfb dfb | egc' fc'e' [bd']3 |] \
bd'f' bd'f' bd'f' | c'e'f' c'e'f' c'e'f' | bd'f' bd'f' bd'f' | [ee']2[d'd] [cc']2[=ec'] [fc']2z | \
bd'f' bd'f' bd'f' | c'e'f' c'e'f' c'e'f' | bd'f' bd'f' dfb | egc' fc'e' [bd']3 |]

